;FLAVOR:Marlin
;TIME:1266
;Filament used: 2.07602m
;Layer height: 0.4
;MINX:40.4
;MINY:55.9
;MINZ:0.3
;MAXX:119.6
;MAXY:104.1
;MAXZ:5.9
;Generated with Cura_SteamEngine master
M104 S200
M105
M109 S200
M82 ;absolute extrusion mode
M92 E415; Set the e-steps for BMG

G28 ;Home
G1 Z15.0 F6000 ;Move the platform down 15mm
;Prime the extruder
G92 E0
G1 F200 E3
G92 E0
G92 E0
G92 E0
G1 F1500 E-6.5
;LAYER_COUNT:15
;LAYER:0
M107
G0 F4800 X116.54 Y56.357 Z0.3
;TYPE:SKIRT
G1 F1500 E0
G1 F480 X117.03 Y56.483 E0.02524
G1 X117.494 Y56.685 E0.05049
G1 X117.92 Y56.957 E0.07571
G1 X118.298 Y57.292 E0.1009
G1 X118.618 Y57.683 E0.12611
G1 X118.873 Y58.12 E0.15135
G1 X119.056 Y58.591 E0.17656
G1 X119.163 Y59.085 E0.20178
G1 X119.199 Y59.74 E0.23451
G1 X119.2 Y99.804 E2.23331
G1 X119.191 Y100.531 E2.26958
G1 X119.145 Y101.034 E2.29478
G1 X119.02 Y101.524 E2.32001
G1 X118.819 Y101.988 E2.34524
G1 X118.548 Y102.415 E2.37047
G1 X118.213 Y102.794 E2.39571
G1 X117.823 Y103.115 E2.42091
G1 X117.387 Y103.371 E2.44613
G1 X116.916 Y103.554 E2.47134
G1 X116.422 Y103.662 E2.49657
G1 X115.76 Y103.699 E2.52965
G1 X44.666 Y103.7 E6.07654
G1 X43.968 Y103.691 E6.11137
G1 X43.464 Y103.644 E6.13662
G1 X42.974 Y103.519 E6.16185
G1 X42.51 Y103.318 E6.18708
G1 X42.084 Y103.047 E6.21227
G1 X41.705 Y102.712 E6.2375
G1 X41.384 Y102.321 E6.26274
G1 X41.129 Y101.885 E6.28794
G1 X40.945 Y101.414 E6.31317
G1 X40.838 Y100.92 E6.33839
G1 X40.801 Y100.244 E6.37216
G1 X40.8 Y60.131 E8.37341
G1 X40.809 Y59.466 E8.40659
G1 X40.856 Y58.962 E8.43184
G1 X40.982 Y58.473 E8.45703
G1 X41.183 Y58.009 E8.48226
G1 X41.454 Y57.582 E8.50749
G1 X41.789 Y57.204 E8.53269
G1 X42.18 Y56.883 E8.55793
G1 X42.617 Y56.628 E8.58317
G1 X43.088 Y56.444 E8.6084
G1 X43.582 Y56.338 E8.63361
G1 X44.24 Y56.301 E8.66649
G1 X115.339 Y56.3 E12.21363
G1 X116.037 Y56.31 E12.24846
G1 X116.54 Y56.357 E12.27366
G0 F4800 X116.577 Y55.958
G1 F480 X117.098 Y56.084 E12.3004
G1 X117.595 Y56.287 E12.32719
G1 X118.056 Y56.561 E12.35394
G1 X118.471 Y56.9 E12.38068
G1 X118.831 Y57.298 E12.40745
G1 X119.128 Y57.744 E12.43419
G1 X119.356 Y58.23 E12.46097
G1 X119.508 Y58.744 E12.48771
G1 X119.59 Y59.409 E12.52114
G1 X119.6 Y99.809 E14.5367
G1 X119.591 Y100.536 E14.57297
G1 X119.544 Y101.07 E14.59972
G1 X119.419 Y101.591 E14.62645
G1 X119.217 Y102.088 E14.65321
G1 X118.944 Y102.55 E14.67999
G1 X118.606 Y102.966 E14.70673
G1 X118.209 Y103.327 E14.7335
G1 X117.763 Y103.625 E14.76026
G1 X117.278 Y103.853 E14.787
G1 X116.764 Y104.007 E14.81377
G1 X116.092 Y104.09 E14.84755
G1 X44.661 Y104.1 E18.41125
G1 X43.963 Y104.091 E18.44608
G1 X43.428 Y104.044 E18.47287
G1 X42.907 Y103.918 E18.49962
G1 X42.41 Y103.716 E18.52638
G1 X41.949 Y103.443 E18.55311
G1 X41.533 Y103.104 E18.57988
G1 X41.172 Y102.708 E18.60662
G1 X40.874 Y102.262 E18.63338
G1 X40.646 Y101.776 E18.66016
G1 X40.493 Y101.262 E18.68692
G1 X40.41 Y100.588 E18.7208
G1 X40.4 Y60.125 E20.7395
G1 X40.409 Y59.46 E20.77268
G1 X40.457 Y58.926 E20.79943
G1 X40.583 Y58.405 E20.82618
G1 X40.785 Y57.908 E20.85294
G1 X41.058 Y57.447 E20.87967
G1 X41.397 Y57.031 E20.90644
G1 X41.794 Y56.671 E20.93318
G1 X42.241 Y56.373 E20.95998
G1 X42.726 Y56.145 E20.98672
G1 X43.24 Y55.992 E21.01348
G1 X43.908 Y55.91 E21.04705
G1 X115.345 Y55.9 E24.61106
G1 X116.043 Y55.91 E24.64589
G1 X116.577 Y55.958 E24.67263
G1 F1500 E18.17263
;MESH:bracket.stl
G0 F4800 X115.386 Y58.835
G0 X115.386 Y60.114
G0 X108.474 Y67.773
G0 X107.839 Y68.743
G0 X107.598 Y70.002
G0 X107.792 Y71.017
G0 X108.332 Y72.667
;TYPE:WALL-INNER
G1 F1500 E24.67263
G1 F1800 X109.605 Y73.502 E24.74859
G1 X111.004 Y73.77 E24.81965
G1 X111.265 Y73.717 E24.83294
G1 X112.397 Y73.502 E24.89043
G1 X112.633 Y73.345 E24.90457
G1 X113.665 Y72.669 E24.96612
G1 X113.827 Y72.426 E24.98069
G1 X114.502 Y71.395 E25.04217
G1 X114.602 Y70.875 E25.06859
G1 X114.77 Y69.995 E25.11328
G1 X114.715 Y69.727 E25.12693
G1 X114.602 Y69.126 E25.15744
G1 X114.502 Y68.603 E25.18401
G1 X114.343 Y68.364 E25.19833
G1 X113.669 Y67.335 E25.2597
G1 X113.426 Y67.173 E25.27427
G1 X112.395 Y66.498 E25.33575
G1 X110.996 Y66.23 E25.40681
G1 X110.735 Y66.283 E25.4201
G1 X109.602 Y66.498 E25.47763
G1 X109.369 Y66.654 E25.49162
G1 X108.335 Y67.331 E25.55328
G1 X108.173 Y67.574 E25.56785
G1 X107.498 Y68.605 E25.62933
G1 X107.23 Y70.004 E25.7004
G1 X107.283 Y70.265 E25.71369
G1 X107.498 Y71.395 E25.77107
G1 X108.332 Y72.667 E25.84696
G0 F4800 X108.335 Y87.331
G1 F1800 X108.173 Y87.574 E25.86153
G1 X107.498 Y88.605 E25.92301
G1 X107.23 Y90.004 E25.99407
G1 X107.283 Y90.265 E26.00736
G1 X107.498 Y91.398 E26.0649
G1 X107.654 Y91.631 E26.07888
G1 X108.331 Y92.665 E26.14054
G1 X108.574 Y92.827 E26.15512
G1 X109.605 Y93.502 E26.2166
G1 X111.004 Y93.77 E26.28766
G1 X111.265 Y93.717 E26.30095
G1 X112.397 Y93.502 E26.35843
G1 X112.633 Y93.345 E26.37257
G1 X113.665 Y92.669 E26.43412
G1 X113.827 Y92.426 E26.44869
G1 X114.502 Y91.395 E26.51017
G1 X114.602 Y90.875 E26.53659
G1 X114.77 Y89.995 E26.58129
G1 X114.715 Y89.727 E26.59494
G1 X114.602 Y89.126 E26.62545
G1 X114.502 Y88.603 E26.65201
G1 X114.343 Y88.364 E26.66633
G1 X113.669 Y87.335 E26.7277
G1 X113.426 Y87.173 E26.74227
G1 X112.395 Y86.498 E26.80375
G1 X110.996 Y86.23 E26.87482
G1 X110.735 Y86.283 E26.88811
G1 X109.602 Y86.498 E26.94564
G1 X109.369 Y86.654 E26.95963
G1 X108.335 Y87.331 E27.02129
G0 F4800 X90.998 Y86.598
G0 X89.981 Y86.792
G0 X88.335 Y87.331
G1 F1800 X88.173 Y87.574 E27.03586
G1 X87.498 Y88.605 E27.09734
G1 X87.23 Y90.004 E27.16841
G1 X87.283 Y90.265 E27.18169
G1 X87.498 Y91.398 E27.23923
G1 X87.654 Y91.631 E27.25322
G1 X88.331 Y92.665 E27.31488
G1 X88.574 Y92.827 E27.32945
G1 X89.605 Y93.502 E27.39093
G1 X91.004 Y93.77 E27.46199
G1 X91.265 Y93.717 E27.47528
G1 X92.397 Y93.502 E27.53277
G1 X92.633 Y93.345 E27.54691
G1 X93.665 Y92.669 E27.60846
G1 X93.827 Y92.426 E27.62303
G1 X94.502 Y91.395 E27.68451
G1 X94.77 Y89.995 E27.75562
G1 X94.715 Y89.727 E27.76927
G1 X94.502 Y88.603 E27.82635
G1 X94.343 Y88.364 E27.84067
G1 X93.669 Y87.335 E27.90204
G1 X93.426 Y87.173 E27.91661
G1 X92.395 Y86.498 E27.97809
G1 X90.996 Y86.23 E28.04915
G1 X90.735 Y86.283 E28.06244
G1 X89.602 Y86.498 E28.11997
G1 X89.369 Y86.654 E28.13396
G1 X88.335 Y87.331 E28.19562
G0 F4800 X82.222 Y97.392
G1 F1800 X82.804 Y96.45 E28.25087
G1 X82.97 Y95.421 E28.30287
G1 X82.742 Y94.399 E28.35511
G1 X82.104 Y93.491 E28.41047
G1 X81.164 Y92.908 E28.46566
G1 X80.133 Y92.742 E28.51776
G1 X79.111 Y92.97 E28.57
G1 X78.203 Y93.608 E28.62536
G1 X77.62 Y94.548 E28.68055
G1 X77.454 Y95.579 E28.73265
G1 X77.682 Y96.601 E28.78489
G1 X78.32 Y97.509 E28.84025
G1 X79.26 Y98.092 E28.89544
G1 X80.291 Y98.258 E28.94754
G1 X81.314 Y98.03 E28.99983
G1 X82.222 Y97.392 E29.05519
G0 F4800 X87.839 Y68.743
G0 X88.335 Y67.331
G1 F1800 X88.173 Y67.574 E29.06976
G1 X87.498 Y68.605 E29.13124
G1 X87.23 Y70.004 E29.20231
G1 X87.283 Y70.265 E29.21559
G1 X87.498 Y71.398 E29.27313
G1 X87.654 Y71.631 E29.28712
G1 X88.331 Y72.665 E29.34878
G1 X88.574 Y72.827 E29.36335
G1 X89.605 Y73.502 E29.42483
G1 X91.004 Y73.77 E29.49589
G1 X91.265 Y73.717 E29.50918
G1 X92.397 Y73.502 E29.56667
G1 X92.633 Y73.345 E29.58081
G1 X93.665 Y72.669 E29.64236
G1 X93.827 Y72.426 E29.65693
G1 X94.502 Y71.395 E29.71841
G1 X94.77 Y69.995 E29.78952
G1 X94.715 Y69.727 E29.80317
G1 X94.502 Y68.603 E29.86025
G1 X94.343 Y68.364 E29.87457
G1 X93.669 Y67.335 E29.93594
G1 X93.426 Y67.173 E29.95051
G1 X92.395 Y66.498 E30.01199
G1 X90.996 Y66.23 E30.08305
G1 X90.735 Y66.283 E30.09634
G1 X89.602 Y66.498 E30.15387
G1 X89.369 Y66.654 E30.16786
G1 X88.335 Y67.331 E30.22952
G0 F4800 X82.222 Y66.392
G1 F1800 X82.804 Y65.45 E30.28477
G1 X82.97 Y64.421 E30.33677
G1 X82.742 Y63.399 E30.38901
G1 X82.104 Y62.491 E30.44437
G1 X81.164 Y61.908 E30.49956
G1 X80.133 Y61.742 E30.55166
G1 X79.111 Y61.97 E30.6039
G1 X78.203 Y62.608 E30.65926
G1 X77.62 Y63.548 E30.71445
G1 X77.454 Y64.579 E30.76655
G1 X77.682 Y65.601 E30.81879
G1 X78.32 Y66.509 E30.87415
G1 X79.26 Y67.092 E30.92934
G1 X80.291 Y67.258 E30.98144
G1 X81.314 Y67.03 E31.03372
G1 X82.222 Y66.392 E31.08909
G0 F4800 X80.28 Y66.89
G0 X64.477 Y66.881
G0 X62.32 Y67.078
G0 X59.872 Y67.781
G0 X57.969 Y68.769
G0 X55.163 Y70.451
G1 F1800 X53.41 Y72.61 E31.22784
G1 X52.158 Y75.024 E31.36351
G1 X52.079 Y75.295 E31.37759
G1 X51.436 Y77.535 E31.49386
G1 X51.409 Y77.802 E31.50725
G1 X51.207 Y80.005 E31.61761
G1 X51.234 Y80.267 E31.63076
G1 X51.434 Y82.46 E31.74062
G1 X52.158 Y84.974 E31.87114
G1 X53.41 Y87.39 E32.0069
G1 X55.163 Y89.549 E32.14565
G1 X57.322 Y91.302 E32.28439
G1 X59.738 Y92.555 E32.42017
G1 X62.248 Y93.276 E32.55046
G1 X62.515 Y93.303 E32.56385
G1 X64.717 Y93.505 E32.67417
G1 X64.984 Y93.478 E32.68756
G1 X67.172 Y93.278 E32.79717
G1 X69.689 Y92.555 E32.92783
G1 X69.946 Y92.42 E32.94231
G1 X72.102 Y91.302 E33.06347
G1 X74.261 Y89.549 E33.20222
G1 X76.015 Y87.39 E33.341
G1 X77.267 Y84.976 E33.47667
G1 X77.346 Y84.705 E33.49075
G1 X77.989 Y82.465 E33.60702
G1 X78.016 Y82.198 E33.62041
G1 X78.217 Y79.995 E33.73077
G1 X78.19 Y79.728 E33.74416
G1 X77.991 Y77.54 E33.85377
G1 X77.267 Y75.026 E33.98429
G1 X76.015 Y72.61 E34.12005
G1 X74.261 Y70.451 E34.25883
G1 X72.102 Y68.698 E34.39758
G1 X69.687 Y67.445 E34.53331
G1 X67.177 Y66.724 E34.6636
G1 X66.91 Y66.697 E34.67699
G1 X64.707 Y66.495 E34.78736
G1 X64.44 Y66.522 E34.80075
G1 X62.252 Y66.722 E34.91036
G1 X61.985 Y66.8 E34.92424
G1 X59.736 Y67.445 E35.04097
G1 X59.479 Y67.58 E35.05545
G1 X57.322 Y68.698 E35.17666
G1 X55.163 Y70.451 E35.31541
G0 F4800 X51.222 Y66.392
G1 F1800 X51.804 Y65.45 E35.37065
G1 X51.97 Y64.421 E35.42265
G1 X51.742 Y63.399 E35.47489
G1 X51.104 Y62.491 E35.53026
G1 X50.164 Y61.908 E35.58544
G1 X49.133 Y61.742 E35.63754
G1 X48.111 Y61.97 E35.68978
G1 X47.203 Y62.608 E35.74515
G1 X46.62 Y63.548 E35.80033
G1 X46.454 Y64.579 E35.85243
G1 X46.682 Y65.601 E35.90467
G1 X47.32 Y66.509 E35.96004
G1 X48.26 Y67.092 E36.01522
G1 X49.291 Y67.258 E36.06732
G1 X50.314 Y67.03 E36.11961
G1 X51.222 Y66.392 E36.17497
G0 F4800 X51.602 Y95.432
G0 X51.222 Y97.392
G1 F1800 X51.804 Y96.45 E36.23022
G1 X51.97 Y95.421 E36.28222
G1 X51.742 Y94.399 E36.33446
G1 X51.104 Y93.491 E36.38982
G1 X50.164 Y92.908 E36.44501
G1 X49.133 Y92.742 E36.49711
G1 X48.111 Y92.97 E36.54935
G1 X47.203 Y93.608 E36.60471
G1 X46.62 Y94.548 E36.6599
G1 X46.454 Y95.579 E36.712
G1 X46.682 Y96.601 E36.76424
G1 X47.32 Y97.509 E36.8196
G1 X48.26 Y98.092 E36.87479
G1 X49.291 Y98.258 E36.92689
G1 X50.314 Y98.03 E36.97918
G1 X51.222 Y97.392 E37.03454
G0 F4800 X45 Y99.5
G1 F1800 X45 Y60.5 E38.98026
G1 X115 Y60.5 E42.47257
G1 X115 Y69.115 E42.90238
G1 X115 Y69.727 E42.92854
G1 X115 Y69.995 E42.93713
G1 X115 Y70.891 E42.97238
G1 X115 Y89.115 E43.88158
G1 X115 Y89.727 E43.90775
G1 X115 Y89.995 E43.91634
G1 X115 Y90.891 E43.95159
G1 X115 Y99.5 E44.38109
G1 X45 Y99.5 E47.87341
G0 F4800 X44.6 Y99.9
G1 F1800 X44.6 Y60.1 E49.85904
G1 X115.4 Y60.1 E53.39126
G1 X115.4 Y99.9 E55.37689
G1 X44.6 Y99.9 E58.90912
G0 F4800 X44.67 Y99.83
G0 X50.165 Y97.693
G0 X50.997 Y97.18
G0 X50.925 Y97.112
G1 F1800 X51.422 Y96.308 E58.95628
G1 X51.563 Y95.433 E59.00049
G1 X51.369 Y94.564 E59.04491
G1 X50.824 Y93.788 E59.09222
G1 X50.021 Y93.29 E59.13936
G1 X49.145 Y93.149 E59.18363
G1 X48.276 Y93.343 E59.22805
G1 X47.5 Y93.888 E59.27536
G1 X47.002 Y94.691 E59.3225
G1 X46.861 Y95.567 E59.36677
G1 X47.055 Y96.436 E59.41119
G1 X47.6 Y97.212 E59.4585
G1 X48.403 Y97.71 E59.50564
G1 X49.279 Y97.851 E59.54991
G1 X50.149 Y97.657 E59.59438
G1 X50.925 Y97.112 E59.64169
G0 F4800 X50.997 Y97.18
G0 X51.459 Y96.321
G0 X52.908 Y85.604
G0 X52.494 Y84.839
G0 X51.79 Y82.393
G0 X51.569 Y80.003
G0 X51.791 Y77.604
G0 X52.494 Y75.16
G0 X53.713 Y72.809
G0 X55.377 Y70.665
G0 X55.447 Y70.735
G1 F1800 X53.746 Y72.83 E59.77632
G1 X52.531 Y75.174 E59.90804
G1 X52.463 Y75.406 E59.9201
G1 X51.83 Y77.611 E60.03455
G1 X51.807 Y77.84 E60.04603
G1 X51.609 Y80.003 E60.1544
G1 X51.632 Y80.226 E60.16558
G1 X51.829 Y82.386 E60.27379
G1 X52.531 Y84.825 E60.40041
G1 X53.746 Y87.17 E60.53218
G1 X55.447 Y89.265 E60.66681
G1 X57.542 Y90.966 E60.80144
G1 X59.887 Y92.182 E60.93323
G1 X62.324 Y92.882 E61.05973
G1 X62.553 Y92.905 E61.07121
G1 X64.715 Y93.103 E61.17953
G1 X64.944 Y93.08 E61.19101
G1 X67.098 Y92.883 E61.29892
G1 X69.539 Y92.182 E61.42562
G1 X69.759 Y92.066 E61.43803
G1 X71.882 Y90.966 E61.55732
G1 X73.977 Y89.265 E61.69196
G1 X75.679 Y87.17 E61.82662
G1 X76.894 Y84.826 E61.95834
G1 X76.962 Y84.594 E61.9704
G1 X77.595 Y82.389 E62.08485
G1 X77.618 Y82.16 E62.09634
G1 X77.815 Y79.997 E62.20469
G1 X77.792 Y79.768 E62.21618
G1 X77.596 Y77.614 E62.32408
G1 X76.894 Y75.175 E62.45071
G1 X75.679 Y72.83 E62.58247
G1 X73.977 Y70.735 E62.71713
G1 X71.882 Y69.034 E62.85177
G1 X69.538 Y67.818 E62.98351
G1 X67.101 Y67.118 E63.11001
G1 X66.872 Y67.095 E63.12149
G1 X64.709 Y66.897 E63.22986
G1 X64.48 Y66.92 E63.24134
G1 X62.327 Y67.117 E63.3492
G1 X62.096 Y67.184 E63.3612
G1 X59.886 Y67.818 E63.4759
G1 X59.666 Y67.934 E63.48831
G1 X57.542 Y69.034 E63.60765
G1 X55.447 Y70.735 E63.74228
G0 F4800 X55.377 Y70.665
G0 X50.997 Y66.18
G0 X50.925 Y66.112
G1 F1800 X51.422 Y65.308 E63.78944
G1 X51.563 Y64.433 E63.83365
G1 X51.369 Y63.564 E63.87808
G1 X50.824 Y62.788 E63.92538
G1 X50.021 Y62.29 E63.97253
G1 X49.145 Y62.149 E64.01679
G1 X48.276 Y62.343 E64.06121
G1 X47.5 Y62.888 E64.10852
G1 X47.002 Y63.691 E64.15566
G1 X46.861 Y64.567 E64.19993
G1 X47.055 Y65.436 E64.24435
G1 X47.6 Y66.212 E64.29166
G1 X48.403 Y66.71 E64.3388
G1 X49.279 Y66.851 E64.38307
G1 X50.149 Y66.657 E64.42754
G1 X50.925 Y66.112 E64.47485
G0 F4800 X50.997 Y66.18
G0 X80.28 Y66.89
G0 X81.076 Y66.713
G0 X81.997 Y66.18
G0 X81.925 Y66.112
G1 F1800 X82.422 Y65.308 E64.522
G1 X82.563 Y64.433 E64.56622
G1 X82.369 Y63.564 E64.61064
G1 X81.824 Y62.788 E64.65795
G1 X81.021 Y62.29 E64.70509
G1 X80.145 Y62.149 E64.74936
G1 X79.276 Y62.343 E64.79378
G1 X78.5 Y62.888 E64.84109
G1 X78.002 Y63.691 E64.88823
G1 X77.861 Y64.567 E64.9325
G1 X78.055 Y65.436 E64.97692
G1 X78.6 Y66.212 E65.02423
G1 X79.403 Y66.71 E65.07137
G1 X80.279 Y66.851 E65.11563
G1 X81.149 Y66.657 E65.1601
G1 X81.925 Y66.112 E65.20741
G0 F4800 X81.997 Y66.18
G0 X88.553 Y67.55
G0 X88.623 Y67.621
G1 F1800 X88.507 Y67.795 E65.21785
G1 X87.876 Y68.758 E65.27529
G1 X87.638 Y70.002 E65.33848
G1 X87.676 Y70.19 E65.34804
G1 X87.876 Y71.243 E65.40152
G1 X87.989 Y71.412 E65.41166
G1 X88.621 Y72.377 E65.46921
G1 X88.795 Y72.493 E65.47964
G1 X89.758 Y73.124 E65.53708
G1 X91.002 Y73.362 E65.60027
G1 X91.19 Y73.324 E65.60984
G1 X92.243 Y73.124 E65.66331
G1 X92.414 Y73.01 E65.67357
G1 X93.377 Y72.379 E65.73101
G1 X93.493 Y72.205 E65.74144
G1 X94.124 Y71.242 E65.79888
G1 X94.362 Y69.998 E65.86207
G1 X94.323 Y69.807 E65.87179
G1 X94.124 Y68.757 E65.92511
G1 X94.01 Y68.586 E65.93537
G1 X93.379 Y67.623 E65.9928
G1 X93.205 Y67.507 E66.00324
G1 X92.242 Y66.876 E66.06068
G1 X90.998 Y66.638 E66.12387
G1 X90.81 Y66.676 E66.13344
G1 X89.757 Y66.876 E66.18691
G1 X89.588 Y66.989 E66.19705
G1 X88.623 Y67.621 E66.2546
G0 F4800 X88.553 Y67.55
G0 X87.839 Y68.743
G0 X87.623 Y69.876
G0 X88.553 Y87.55
G0 X88.623 Y87.621
G1 F1800 X88.507 Y87.795 E66.26503
G1 X87.876 Y88.758 E66.32247
G1 X87.638 Y90.002 E66.38566
G1 X87.676 Y90.19 E66.39523
G1 X87.876 Y91.243 E66.44871
G1 X87.989 Y91.412 E66.45885
G1 X88.621 Y92.377 E66.5164
G1 X88.795 Y92.493 E66.52683
G1 X89.758 Y93.124 E66.58427
G1 X91.002 Y93.362 E66.64746
G1 X91.19 Y93.324 E66.65703
G1 X92.243 Y93.124 E66.7105
G1 X92.414 Y93.01 E66.72076
G1 X93.377 Y92.379 E66.7782
G1 X93.493 Y92.205 E66.78863
G1 X94.124 Y91.242 E66.84607
G1 X94.362 Y89.998 E66.90926
G1 X94.323 Y89.807 E66.91898
G1 X94.124 Y88.757 E66.9723
G1 X94.01 Y88.586 E66.98255
G1 X93.379 Y87.623 E67.03999
G1 X93.205 Y87.507 E67.05043
G1 X92.242 Y86.876 E67.10787
G1 X90.998 Y86.638 E67.17105
G1 X90.81 Y86.676 E67.18062
G1 X89.757 Y86.876 E67.2341
G1 X89.588 Y86.989 E67.24424
G1 X88.623 Y87.621 E67.30179
G0 F4800 X88.553 Y87.55
G0 X81.997 Y97.18
G0 X81.925 Y97.112
G1 F1800 X82.422 Y96.308 E67.34895
G1 X82.563 Y95.433 E67.39316
G1 X82.369 Y94.564 E67.43759
G1 X81.824 Y93.788 E67.48489
G1 X81.021 Y93.29 E67.53204
G1 X80.145 Y93.149 E67.5763
