;FLAVOR:Marlin
;TIME:578
;Filament used: 0.941987m
;Layer height: 0.4
;MINX:63.684
;MINY:46.202
;MINZ:0.3
;MAXX:96.303
;MAXY:113.784
;MAXZ:11.9
;Generated with Cura_SteamEngine master
M104 S200
M105
M109 S200
M82 ;absolute extrusion mode
M92 E415; Set the e-steps for BMG

G28 ;Home
G1 Z15.0 F6000 ;Move the platform down 15mm
;Prime the extruder
G92 E0
G1 F200 E3
G92 E0
G92 E0
G92 E0
G1 F1500 E-6.5
;LAYER_COUNT:30
;LAYER:0
M107
G0 F4800 X72.494 Y46.659 Z0.3
;TYPE:SKIRT
G1 F1500 E0
G1 F480 X72.984 Y46.785 E0.02524
G1 X73.448 Y46.987 E0.05049
G1 X73.874 Y47.259 E0.07571
G1 X74.252 Y47.594 E0.1009
G1 X74.572 Y47.985 E0.12611
G1 X74.827 Y48.422 E0.15135
G1 X75.01 Y48.893 E0.17656
G1 X75.14 Y49.627 E0.21375
G1 X75.18 Y50.324 E0.24858
G1 X75.38 Y53.108 E0.38784
G1 X75.653 Y55.816 E0.52362
G1 X76.004 Y58.537 E0.6605
G1 X76.436 Y61.271 E0.79859
G1 X76.934 Y63.929 E0.93351
G1 X77.509 Y66.582 E1.06894
G1 X78.17 Y69.269 E1.20699
G1 X78.896 Y71.893 E1.34282
G1 X79.704 Y74.521 E1.47999
G1 X80.581 Y77.112 E1.61646
G1 X81.54 Y79.701 E1.7542
G1 X82.559 Y82.23 E1.89023
G1 X83.65 Y84.73 E2.02631
G1 X84.817 Y87.212 E2.16315
G1 X86.047 Y89.647 E2.29925
G1 X87.355 Y92.065 E2.4364
G1 X88.734 Y94.446 E2.57368
G1 X90.158 Y96.753 E2.70893
G1 X91.674 Y99.064 E2.84682
G1 X93.219 Y101.276 E2.98143
G1 X95.272 Y104.031 E3.15285
G1 X95.541 Y104.459 E3.17807
G1 X95.739 Y104.924 E3.20328
G1 X95.862 Y105.414 E3.22849
G1 X95.906 Y105.918 E3.25373
G1 X95.87 Y106.422 E3.27894
G1 X95.755 Y106.915 E3.30419
G1 X95.564 Y107.383 E3.32941
G1 X95.301 Y107.815 E3.35464
G1 X94.937 Y108.258 E3.38325
G1 X91.237 Y111.972 E3.6448
G1 X90.717 Y112.478 E3.68099
G1 X90.328 Y112.801 E3.70622
G1 X89.893 Y113.059 E3.73145
G1 X89.423 Y113.244 E3.75665
G1 X88.929 Y113.354 E3.7819
G1 X88.425 Y113.384 E3.80709
G1 X87.922 Y113.335 E3.8323
G1 X87.432 Y113.207 E3.85757
G1 X86.97 Y113.003 E3.88277
G1 X86.545 Y112.73 E3.90797
G1 X85.903 Y112.14 E3.95147
G1 X65.534 Y91.771 E5.38861
G1 X64.988 Y91.209 E5.4277
G1 X64.665 Y90.82 E5.45293
G1 X64.408 Y90.384 E5.47818
G1 X64.223 Y89.914 E5.50338
G1 X64.114 Y89.42 E5.52862
G1 X64.084 Y88.916 E5.55381
G1 X64.233 Y87.802 E5.60988
G1 X64.494 Y86.335 E5.68422
G1 X64.9 Y83.614 E5.82147
G1 X65.225 Y80.915 E5.9571
G1 X65.476 Y78.172 E6.09452
G1 X65.649 Y75.427 E6.23174
G1 X65.744 Y72.707 E6.36752
G1 X65.765 Y70.617 E6.4718
G1 X65.754 Y50.477 E7.47659
G1 X65.765 Y49.759 E7.51241
G1 X65.814 Y49.256 E7.53763
G1 X65.941 Y48.766 E7.56288
G1 X66.143 Y48.303 E7.58808
G1 X66.416 Y47.877 E7.61332
G1 X66.753 Y47.5 E7.63855
G1 X67.144 Y47.18 E7.66376
G1 X67.581 Y46.927 E7.68895
G1 X68.053 Y46.745 E7.71419
G1 X68.548 Y46.639 E7.73945
G1 X69.182 Y46.604 E7.77112
G1 X71.293 Y46.602 E7.87644
G1 X71.991 Y46.612 E7.91127
G1 X72.494 Y46.659 E7.93647
G0 F4800 X72.531 Y46.26
G1 F480 X73.052 Y46.386 E7.96322
G1 X73.549 Y46.589 E7.99
G1 X74.01 Y46.863 E8.01675
G1 X74.425 Y47.202 E8.04349
G1 X74.785 Y47.6 E8.07026
G1 X75.082 Y48.046 E8.097
G1 X75.31 Y48.532 E8.12378
G1 X75.462 Y49.046 E8.15052
G1 X75.539 Y49.604 E8.17862
G1 X75.579 Y50.296 E8.2132
G1 X75.779 Y53.073 E8.35211
G1 X76.052 Y55.792 E8.48844
G1 X76.397 Y58.46 E8.62266
G1 X76.826 Y61.171 E8.75959
G1 X77.331 Y63.876 E8.89688
G1 X77.894 Y66.473 E9.02945
G1 X78.559 Y69.171 E9.16808
G1 X79.291 Y71.817 E9.30505
G1 X80.079 Y74.381 E9.43887
G1 X80.959 Y76.982 E9.57586
G1 X81.91 Y79.548 E9.71239
G1 X82.926 Y82.069 E9.84799
G1 X84.015 Y84.565 E9.98386
G1 X85.178 Y87.04 E10.12029
G1 X86.399 Y89.455 E10.2553
G1 X87.718 Y91.894 E10.39363
G1 X89.062 Y94.215 E10.52744
G1 X90.5 Y96.546 E10.66408
G1 X92.009 Y98.846 E10.80132
G1 X93.54 Y101.037 E10.93468
G1 X95.593 Y103.792 E11.10609
G1 X95.88 Y104.245 E11.13284
G1 X96.097 Y104.735 E11.15958
G1 X96.239 Y105.252 E11.18633
G1 X96.303 Y105.785 E11.21311
G1 X96.286 Y106.321 E11.23986
G1 X96.19 Y106.848 E11.26659
G1 X96.017 Y107.356 E11.29336
G1 X95.771 Y107.832 E11.32009
G1 X95.442 Y108.283 E11.34795
G1 X95.051 Y108.724 E11.37735
G1 X91.52 Y112.255 E11.62648
G1 X90.996 Y112.765 E11.66296
G1 X90.585 Y113.109 E11.6897
G1 X90.127 Y113.389 E11.71648
G1 X89.633 Y113.597 E11.74322
G1 X89.114 Y113.73 E11.76995
G1 X88.58 Y113.784 E11.79673
G1 X88.044 Y113.758 E11.8235
G1 X87.518 Y113.653 E11.85026
G1 X87.014 Y113.471 E11.877
G1 X86.542 Y113.216 E11.90376
G1 X85.983 Y112.774 E11.93932
G1 X85.581 Y112.385 E11.96722
G1 X65.251 Y92.054 E13.40165
G1 X64.701 Y91.488 E13.44102
G1 X64.357 Y91.076 E13.4678
G1 X64.078 Y90.618 E13.49456
G1 X63.87 Y90.124 E13.5213
G1 X63.738 Y89.604 E13.54806
G1 X63.684 Y89.071 E13.57479
G1 X63.73 Y88.398 E13.60845
G1 X63.838 Y87.737 E13.64186
G1 X64.098 Y86.278 E13.7158
G1 X64.506 Y83.544 E13.85371
G1 X64.828 Y80.864 E13.98838
G1 X65.077 Y78.149 E14.1244
G1 X65.249 Y75.422 E14.26072
G1 X65.344 Y72.689 E14.39715
G1 X65.365 Y70.613 E14.50073
G1 X65.354 Y50.477 E15.50532
G1 X65.365 Y49.752 E15.54149
G1 X65.414 Y49.218 E15.56824
G1 X65.542 Y48.697 E15.59501
G1 X65.745 Y48.201 E15.62175
G1 X66.02 Y47.741 E15.64849
G1 X66.361 Y47.326 E15.67528
G1 X66.759 Y46.967 E15.70202
G1 X67.206 Y46.671 E15.72877
G1 X67.692 Y46.445 E15.75551
G1 X68.207 Y46.293 E15.7823
G1 X68.852 Y46.214 E15.81472
G1 X71.299 Y46.202 E15.9368
G1 X71.997 Y46.212 E15.97163
G1 X72.531 Y46.26 E15.99838
G1 F1500 E9.49838
;MESH:pen-holder.stl
G0 F4800 X71.34 Y49.137
G0 X71.34 Y50.416
G0 X69.958 Y84.802
;TYPE:WALL-INNER
G1 F1500 E15.99838
G1 F1800 X69.954 Y84.802 E15.99858
G1 X69.954 Y50.802 E17.69484
G1 X70.954 Y50.802 E17.74473
G1 X70.954 Y85.596 E19.48061
G1 X91.173 Y105.814 E20.90714
G1 X91.314 Y105.955 E20.91709
G1 X91.173 Y106.096 E20.92351
G1 X88.626 Y108.643 E21.10322
G1 X88.485 Y108.784 E21.11316
G1 X88.344 Y108.643 E21.11959
G1 X68.827 Y89.125 E22.49665
G1 X68.686 Y88.984 E22.5066
G1 X68.827 Y88.843 E22.51302
G1 X70.69 Y86.981 E22.64443
G1 X70.009 Y86.006 E22.70377
G1 X69.971 Y85.887 E22.71
G1 X69.958 Y84.802 E22.76413
G0 F4800 X69.563 Y85.202
G1 F1800 X69.554 Y85.202 E22.76458
G1 X69.554 Y50.402 E24.50076
G1 X71.354 Y50.402 E24.59057
G1 X71.354 Y85.43 E26.33812
G1 X91.739 Y105.814 E27.77636
G1 X91.88 Y105.955 E27.7863
G1 X91.739 Y106.096 E27.79273
G1 X88.626 Y109.209 E28.01237
G1 X88.485 Y109.35 E28.02232
G1 X88.344 Y109.209 E28.02874
G1 X68.261 Y89.125 E29.44574
G1 X68.12 Y88.984 E29.45569
G1 X68.261 Y88.843 E29.46211
G1 X70.17 Y86.935 E29.59677
G1 X69.647 Y86.186 E29.64234
G1 X69.572 Y85.95 E29.6547
G1 X69.563 Y85.202 E29.69202
G0 F4800 X69.168 Y85.602
;TYPE:WALL-OUTER
G1 F1800 X69.154 Y85.602 E29.69272
G1 X69.154 Y50.002 E31.46881
G1 X71.754 Y50.002 E31.59852
G1 X71.754 Y85.264 E33.35775
G1 X92.305 Y105.814 E34.8077
G1 X92.446 Y105.955 E34.81765
G1 X92.305 Y106.096 E34.82407
G1 X88.485 Y109.916 E35.09359
G1 X67.695 Y89.125 E36.56047
G1 X67.554 Y88.984 E36.57042
G1 X67.695 Y88.843 E36.57685
G1 X69.65 Y86.889 E36.71475
G1 X69.285 Y86.366 E36.74657
G1 X69.173 Y86.013 E36.76504
G1 X69.168 Y85.602 E36.78555
G0 F4800 X69.154 Y85.602
G0 X69.154 Y85.416
G0 X69.666 Y85.411
G0 X70.363 Y85.831
;TYPE:SKIN
G1 F1800 X70.344 Y84.412 E36.85635
G1 X70.344 Y51.192 E38.5137
G1 X70.564 Y51.192 E38.52468
G1 X70.564 Y85.758 E40.24918
G1 X90.764 Y105.955 E41.67429
G1 X88.485 Y108.234 E41.83509
G1 X69.236 Y88.984 E43.19325
G1 X71.197 Y87.026 E43.3315
G1 X70.363 Y85.831 E43.4042
G0 F4800 X70.239 Y86.727
G0 X69.621 Y88.855
G1 F1800 X88.615 Y107.848 E44.7443
G0 F4800 X88.898 Y107.565
G1 F1800 X69.904 Y88.572 E46.08439
G0 F4800 X70.187 Y88.289
G1 F1800 X89.181 Y107.282 E47.42448
G0 F4800 X89.463 Y107
G1 F1800 X70.47 Y88.006 E48.76458
G0 F4800 X70.753 Y87.723
G1 F1800 X89.746 Y106.717 E50.10467
G0 F4800 X90.029 Y106.434
G1 F1800 X71.035 Y87.44 E51.4448
G0 F4800 X71.318 Y87.157
G1 F1800 X90.312 Y106.151 E52.78493
G1 X90.382 Y106.221
;MESH:NONMESH
G0 F600 X90.382 Y106.221 Z0.7
G0 F4800 X69.977 Y84.802
;TIME_ELAPSED:69.403305
;LAYER:1
M106 S255
;TYPE:WALL-INNER
;MESH:pen-holder.stl
G1 F1800 X69.954 Y84.802 E52.78646
G1 X69.954 Y50.802 E55.04815
G1 X70.954 Y50.802 E55.11467
G1 X70.954 Y85.598 E57.42931
G1 X91.173 Y105.814 E59.33125
G1 X91.314 Y105.955 E59.34451
G1 X91.173 Y106.096 E59.35308
G1 X88.482 Y108.781 E59.60595
G1 X68.827 Y89.125 E61.45502
G1 X68.686 Y88.984 E61.46828
G1 X68.827 Y88.843 E61.47685
G1 X70.69 Y86.981 E61.65206
G1 X70.01 Y86.009 E61.73097
G1 X69.971 Y85.882 E61.73981
G1 X69.977 Y84.802 E61.81165
G0 F4800 X69.575 Y85.202
G1 F1800 X69.554 Y85.202 E61.81305
G1 X69.554 Y50.402 E64.12795
G1 X71.354 Y50.402 E64.24769
G1 X71.354 Y85.432 E66.57789
G1 X91.739 Y105.814 E68.49545
G1 X91.88 Y105.955 E68.50871
G1 X91.739 Y106.096 E68.51728
G1 X88.482 Y109.347 E68.82339
G1 X68.261 Y89.125 E70.72571
G1 X68.12 Y88.984 E70.73897
G1 X68.261 Y88.843 E70.74754
G1 X70.17 Y86.935 E70.92708
G1 X69.647 Y86.187 E70.98779
G1 X69.571 Y85.941 E71.00492
G1 X69.575 Y85.202 E71.05408
G0 F4800 X69.173 Y85.602
;TYPE:WALL-OUTER
G1 F1800 X69.154 Y85.602 E71.05534
G1 X69.154 Y50.002 E73.42346
G1 X71.754 Y50.002 E73.59642
G1 X71.754 Y85.266 E75.94219
G1 X92.305 Y105.814 E77.87536
G1 X92.446 Y105.955 E77.88862
G1 X92.305 Y106.096 E77.89719
G1 X88.482 Y109.913 E78.25655
G1 X67.695 Y89.125 E80.21211
G1 X67.554 Y88.984 E80.22538
G1 X67.695 Y88.843 E80.23394
G1 X69.65 Y86.889 E80.41781
G1 X69.284 Y86.365 E80.46033
G1 X69.171 Y86 E80.48574
G1 X69.173 Y85.602 E80.51222
G0 F4800 X69.154 Y85.602
G0 X69.154 Y85.421
G0 X69.673 Y85.424
G0 X70.361 Y85.825
;TYPE:SKIN
G1 F1800 X70.369 Y84.412 E80.60621
G1 X70.344 Y84.412 E80.60788
G1 X70.344 Y51.192 E82.81768
G1 X70.564 Y51.192 E82.83231
G1 X70.564 Y85.76 E85.13179
G1 X90.763 Y105.954 E87.03175
G1 X88.482 Y108.231 E87.24614
G1 X69.236 Y88.984 E89.05674
G1 X71.197 Y87.026 E89.24107
G1 X70.364 Y85.834 E89.33781
G1 X70.361 Y85.825 E89.33844
G0 F4800 X71.472 Y86.919
G1 F1800 X71.397 Y86.994 E89.3455
G0 F4800 X71.755 Y87.202
G1 F1800 X69.732 Y89.225 E89.53581
G0 F4800 X70.014 Y89.508
G1 F1800 X72.037 Y87.485 E89.72612
G0 F4800 X72.32 Y87.768
G1 F1800 X70.297 Y89.791 E89.91643
G0 F4800 X70.58 Y90.074
G1 F1800 X72.603 Y88.051 E90.10674
G0 F4800 X72.886 Y88.333
G1 F1800 X70.863 Y90.356 E90.29705
G0 F4800 X71.146 Y90.639
G1 F1800 X73.169 Y88.616 E90.48736
G0 F4800 X73.452 Y88.899
G1 F1800 X71.429 Y90.922 E90.67768
G0 F4800 X71.711 Y91.205
G1 F1800 X73.734 Y89.182 E90.86799
G0 F4800 X74.017 Y89.465
G1 F1800 X71.994 Y91.488 E91.0583
G0 F4800 X72.277 Y91.771
G1 F1800 X74.3 Y89.748 E91.24861
G0 F4800 X74.583 Y90.03
G1 F1800 X72.56 Y92.053 E91.43892
G0 F4800 X72.843 Y92.336
G1 F1800 X74.866 Y90.313 E91.62923
G0 F4800 X75.149 Y90.596
G1 F1800 X73.126 Y92.619 E91.81954
G0 F4800 X73.408 Y92.902
G1 F1800 X75.432 Y90.879 E92.0099
G0 F4800 X75.714 Y91.162
G1 F1800 X73.691 Y93.185 E92.20021
G0 F4800 X73.974 Y93.468
G1 F1800 X75.997 Y91.445 E92.39053
G0 F4800 X76.28 Y91.728
G1 F1800 X74.257 Y93.751 E92.58084
G0 F4800 X74.54 Y94.033
G1 F1800 X76.563 Y92.01 E92.77115
G0 F4800 X76.846 Y92.293
G1 F1800 X74.823 Y94.316 E92.96146
G0 F4800 X75.106 Y94.599
G1 F1800 X77.129 Y92.576 E93.15177
G0 F4800 X77.411 Y92.859
G1 F1800 X75.388 Y94.882 E93.34208
G0 F4800 X75.671 Y95.165
G1 F1800 X77.695 Y93.141 E93.53249
G0 F4800 X77.978 Y93.424
G1 F1800 X75.954 Y95.448 E93.72289
G0 F4800 X76.237 Y95.73
G1 F1800 X78.261 Y93.707 E93.91325
G0 F4800 X78.544 Y93.99
G1 F1800 X76.52 Y96.013 E94.10361
G0 F4800 X76.803 Y96.296
G1 F1800 X78.826 Y94.272 E94.29397
G0 F4800 X79.109 Y94.555
G1 F1800 X77.085 Y96.579 E94.48437
G0 F4800 X77.368 Y96.862
G1 F1800 X79.392 Y94.838 E94.67478
G0 F4800 X79.675 Y95.121
G1 F1800 X77.651 Y97.145 E94.86519
G0 F4800 X77.934 Y97.428
G1 F1800 X79.958 Y95.404 E95.05559
G0 F4800 X80.241 Y95.687
G1 F1800 X78.217 Y97.71 E95.24595
G0 F4800 X78.5 Y97.993
G1 F1800 X80.523 Y95.969 E95.43631
G0 F4800 X80.806 Y96.252
G1 F1800 X78.783 Y98.276 E95.62667
G0 F4800 X79.065 Y98.559
G1 F1800 X81.089 Y96.535 E95.81707
G0 F4800 X81.372 Y96.818
G1 F1800 X79.348 Y98.842 E96.00748
G0 F4800 X79.631 Y99.125
G1 F1800 X81.655 Y97.101 E96.19788
G0 F4800 X81.938 Y97.384
G1 F1800 X79.914 Y99.407 E96.38824
G0 F4800 X80.197 Y99.69
G1 F1800 X82.22 Y97.667 E96.57855
G0 F4800 X82.503 Y97.949
G1 F1800 X80.48 Y99.973 E96.76891
G0 F4800 X80.762 Y100.256
G1 F1800 X82.786 Y98.232 E96.95932
G0 F4800 X83.069 Y98.515
G1 F1800 X81.045 Y100.539 E97.14972
G0 F4800 X81.328 Y100.822
G1 F1800 X83.352 Y98.798 E97.34013
G0 F4800 X83.635 Y99.081
G1 F1800 X81.611 Y101.104 E97.53049
G0 F4800 X81.894 Y101.387
G1 F1800 X83.918 Y99.364 E97.72085
G0 F4800 X84.201 Y99.646
G1 F1800 X82.177 Y101.67 E97.91125
G0 F4800 X82.459 Y101.953
G1 F1800 X84.484 Y99.929 E98.1017
G0 F4800 X84.767 Y100.211
G1 F1800 X82.742 Y102.236 E98.2922
G0 F4800 X83.025 Y102.519
G1 F1800 X85.05 Y100.494 E98.4827
G0 F4800 X85.332 Y100.777
G1 F1800 X83.308 Y102.802 E98.67315
G0 F4800 X83.591 Y103.084
G1 F1800 X85.615 Y101.06 E98.86356
G0 F4800 X85.898 Y101.343
G1 F1800 X83.874 Y103.367 E99.05397
G0 F4800 X84.157 Y103.65
G1 F1800 X86.181 Y101.626 E99.24437
G0 F4800 X86.464 Y101.908
G1 F1800 X84.439 Y103.933 E99.43487
G0 F4800 X84.722 Y104.216
G1 F1800 X86.747 Y102.191 E99.62537
G0 F4800 X87.029 Y102.474
G1 F1800 X85.005 Y104.499 E99.81582
G0 F4800 X85.288 Y104.781
G1 F1800 X87.312 Y102.757 E100.00623
G0 F4800 X87.595 Y103.04
G1 F1800 X85.571 Y105.064 E100.19663
G0 F4800 X85.854 Y105.347
G1 F1800 X87.878 Y103.323 E100.38704
G0 F4800 X88.161 Y103.605
G1 F1800 X86.136 Y105.63 E100.57754
G0 F4800 X86.419 Y105.913
G1 F1800 X88.444 Y103.888 E100.76804
G0 F4800 X88.727 Y104.171
G1 F1800 X86.702 Y106.196 E100.95854
G0 F4800 X86.985 Y106.478
G1 F1800 X89.009 Y104.454 E101.14894
G0 F4800 X89.292 Y104.737
G1 F1800 X87.268 Y106.761 E101.33935
G0 F4800 X87.551 Y107.044
G1 F1800 X89.575 Y105.02 E101.52975
G0 F4800 X89.858 Y105.303
G1 F1800 X87.833 Y107.327 E101.72021
G0 F4800 X88.116 Y107.61
G1 F1800 X90.141 Y105.585 E101.91071
G0 F4800 X90.424 Y105.868
G1 F1800 X88.399 Y107.893 E102.10121
G1 X88.329 Y107.963
;MESH:NONMESH
G0 F600 X88.329 Y107.963 Z1.1
G0 F4800 X71.318 Y85.447
G0 X70.113 Y53.142
;TIME_ELAPSED:96.372158
;LAYER:2
;TYPE:FILL
;MESH:pen-holder.stl
G1 F1800 X70.794 Y53.823 E102.16527
G1 X70.864 Y53.893
G0 F4800 X70.793 Y55.265
G1 F1800 X70.113 Y55.944 E102.22919
G1 X70.043 Y56.014
G0 F4800 X70.113 Y58.799
G1 F1800 X70.794 Y59.48 E102.29326
G1 X70.864 Y59.55
G0 F4800 X70.793 Y60.922
G1 F1800 X70.113 Y61.601 E102.35718
G1 X70.043 Y61.671
G0 F4800 X70.113 Y64.456
G1 F1800 X70.794 Y65.137 E102.42125
G1 X70.864 Y65.207
G0 F4800 X70.793 Y66.579
G1 F1800 X70.113 Y67.258 E102.48517
G1 X70.043 Y67.328
G0 F4800 X70.113 Y70.113
G1 F1800 X70.794 Y70.794 E102.54923
G1 X70.864 Y70.864
G0 F4800 X70.793 Y72.235
G1 F1800 X70.114 Y72.914 E102.61311
G1 X70.044 Y72.984
G0 F4800 X70.113 Y75.77
G1 F1800 X70.794 Y76.45 E102.67713
G1 X70.864 Y76.52
G0 F4800 X70.793 Y77.892
G1 F1800 X70.114 Y78.571 E102.741
G1 X70.044 Y78.641
G0 F4800 X70.113 Y81.427
G1 F1800 X70.794 Y82.107 E102.80502
G1 X70.864 Y82.177
G0 F4800 X70.793 Y83.549
G1 F1800 X70.114 Y84.228 E102.8689
G1 X70.044 Y84.298
G0 F4800 X70.463 Y87.434
G1 F1800 X90.035 Y107.006 E104.71011
G1 X90.105 Y107.076
G0 F4800 X89.537 Y104.403
G1 F1800 X86.934 Y107.006 E104.95498
G1 X86.864 Y107.076
G0 F4800 X84.106 Y104.178
G1 F1800 X86.708 Y101.575 E105.19981
G1 X86.778 Y101.505
G0 F4800 X83.879 Y98.747
G1 F1800 X81.277 Y101.349 E105.44459
G1 X81.207 Y101.419
G0 F4800 X78.449 Y98.521
G1 F1800 X81.051 Y95.919 E105.68937
G1 X81.121 Y95.849
G0 F4800 X78.222 Y93.091
G1 F1800 X75.62 Y95.692 E105.93411
G1 X75.55 Y95.762
G0 F4800 X72.792 Y92.864
G1 F1800 X75.393 Y90.263 E106.17879
G1 X75.463 Y90.193
G0 F4800 X72.564 Y87.435
G1 F1800 X69.963 Y90.035 E106.42343
G1 X69.893 Y90.105
G0 F4800 X70.209 Y86.938
G0 X69.981 Y84.802
;TYPE:WALL-INNER
G1 F1800 X69.954 Y84.802 E106.42523
G1 X69.954 Y50.802 E108.68692
G1 X70.954 Y50.802 E108.75344
G1 X70.954 Y85.599 E111.06814
G1 X91.173 Y105.814 E112.97003
G1 X91.314 Y105.955 E112.9833
G1 X91.173 Y106.096 E112.99186
G1 X88.626 Y108.643 E113.23147
G1 X88.485 Y108.784 E113.24473
G1 X88.344 Y108.643 E113.2533
G1 X68.827 Y89.125 E115.08939
G1 X68.686 Y88.984 E115.10265
G1 X68.827 Y88.843 E115.11122
G1 X70.69 Y86.981 E115.28643
